tests/test.cube
#title:FLog_FGamut_to_ETERNA_BT.709
#FUJIFILM Corporation
#Gamma:F-Log to ETERNA
#Gamut:F-Gamut to ITU-R BT.709
#Version:1.01
LUT_3D_SIZE 5
0.007876 0.007876 0.007876
0.304921 0.012919 0.025530
0.921146 0.024840 0.123604
0.982378 0.027155 0.134255
0.982378 0.027155 0.134255
0.000000 0.146163 0.000051
0.167930 0.141448 0.000000
0.642335 0.018572 0.075954
0.982378 0.027155 0.134255
0.982378 0.027155 0.134255
0.000000 0.476344 0.000166
0.000000 0.524027 0.000183
0.561021 0.490276 0.000000
0.998429 0.345056 0.050508
0.990147 0.111774 0.120112
0.000000 0.902074 0.000315
0.000000 0.945728 0.000330
0.384722 0.930247 0.000091
0.919049 0.896071 0.000000
0.966444 0.695810 0.000000
0.000000 0.984192 0.000343
0.000000 0.984192 0.000343
0.000000 0.988160 0.000345
0.636496 0.999949 0.000000
0.915342 0.999925 0.000000
0.009691 0.012958 0.188276
0.282206 0.012074 0.115499
0.862051 0.023318 0.113807
0.982378 0.027155 0.134255
0.982378 0.027155 0.134255
0.000049 0.146484 0.186863
0.153123 0.153123 0.153123
0.621026 0.023335 0.070167
0.982378 0.027155 0.134255
0.982378 0.027155 0.134255
0.000000 0.503895 0.194438
0.000000 0.553345 0.138821
0.553717 0.522946 0.057740
0.998219 0.380526 0.031283
0.991657 0.139920 0.114441
0.000000 0.904775 0.178455
0.000000 0.945056 0.000330
0.358289 0.934035 0.000108
0.906164 0.907123 0.000000
0.963320 0.720171 0.000000
0.000000 0.977842 0.000341
0.000000 0.979796 0.000342
0.000000 0.983093 0.000343
0.610858 0.998486 0.000000
0.915342 0.999925 0.000000
0.010797 0.049749 0.631531
0.234820 0.013758 0.494892
0.829874 0.020161 0.301615
0.982378 0.027155 0.134255
0.982378 0.027155 0.134255
0.000302 0.128812 0.593458
0.017261 0.147607 0.488048
0.626614 0.040277 0.442266
0.982378 0.027155 0.134255
0.982378 0.027155 0.134255
0.000149 0.520049 0.620220
0.000093 0.570231 0.562161
0.540876 0.540876 0.540876
0.999861 0.413888 0.350749
0.992747 0.157198 0.111027
0.000006 0.889672 0.646365
0.000000 0.929414 0.587508
0.256574 0.923651 0.574281
0.910836 0.901299 0.455707
0.960136 0.742273 0.000000
0.000000 0.969641 0.495612
0.000000 0.971891 0.383978
0.000000 0.973228 0.318145
0.632078 0.991196 0.462686
0.915586 0.999925 0.000000
0.000533 0.121334 0.972330
0.000511 0.107287 0.925790
0.811042 0.012943 0.854242
0.988557 0.024845 0.256329
0.982378 0.027155 0.134255
0.000540 0.127624 0.988027
0.000493 0.109117 0.897394
0.593689 0.009607 0.890037
1.000000 0.019383 0.671959
0.982378 0.027155 0.134255
0.000353 0.489609 0.937038
0.000302 0.550843 0.895532
0.401242 0.531453 0.893573
1.000000 0.407521 0.874418
0.999995 0.302965 0.493735
0.000175 0.841826 0.891909
0.000141 0.886943 0.867924
0.000131 0.886454 0.851863
0.873863 0.873863 0.873863
0.997357 0.766444 0.700740
0.000071 0.962279 0.806698
0.000030 0.964044 0.738667
0.000010 0.964957 0.706483
0.532556 0.982251 0.724854
0.964440 0.999790 0.641238
0.000539 0.128234 0.988028
0.000527 0.117059 0.959077
0.735742 0.010459 0.999815
1.000000 0.018597 0.759288
1.000000 0.021750 0.493392
0.000531 0.145451 0.985835
0.000531 0.145451 0.985835
0.364546 0.133332 1.000000
1.000000 0.014587 0.999656
1.000000 0.018596 0.745486
0.000437 0.328184 0.961166
0.000398 0.402852 0.950016
0.000399 0.401448 0.950504
0.936916 0.350695 0.999812
1.000000 0.210136 0.909342
0.000251 0.689681 0.910848
0.000215 0.760076 0.901346
0.000211 0.767768 0.900310
0.705606 0.783587 0.976591
1.000000 0.743935 0.946108
0.000119 0.960210 0.884683
0.000119 0.960210 0.884683
0.000119 0.960210 0.884683
0.000127 0.965401 0.901418
1.000000 1.000000 1.000000
