tests/test.cube
#title:FLog_FGamut_to_ETERNA_BT.709
#FUJIFILM Corporation
#Gamma:F-Log to ETERNA
#Gamut:F-Gamut to ITU-R BT.709
#Version:1.01
LUT_3D_SIZE 33
0.007876 0.007876 0.007876
0.007021 0.007876 0.007021
0.011232 0.008730 0.007019
0.057261 0.009581 0.010411
0.104143 0.010432 0.012032
0.150232 0.010428 0.014508
0.195222 0.011218 0.016924
0.247049 0.012069 0.020068
0.304921 0.012919 0.025530
0.378299 0.013707 0.032997
0.462851 0.015349 0.045527
0.543863 0.016991 0.058181
0.625180 0.017779 0.072300
0.704545 0.019361 0.086603
0.779024 0.021736 0.099811
0.851551 0.023319 0.112104
0.921146 0.024840 0.123604
0.982378 0.027155 0.134255
0.982378 0.027155 0.134255
0.982378 0.027155 0.134255
0.982378 0.027155 0.134255
0.982378 0.027155 0.134255
0.982378 0.027155 0.134255
0.982378 0.027155 0.134255
0.982378 0.027155 0.134255
0.982378 0.027155 0.134255
0.982378 0.027155 0.134255
0.982378 0.027155 0.134255
0.982378 0.027155 0.134255
0.982378 0.027155 0.134255
0.982378 0.027155 0.134255
0.982378 0.027155 0.134255
0.982378 0.027155 0.134255
0.007021 0.007876 0.007021
0.007021 0.007876 0.007021
0.005311 0.007876 0.006168
0.039619 0.009583 0.009567
0.090164 0.009579 0.011185
0.136802 0.010429 0.013661
0.180693 0.011219 0.016139
0.230383 0.012070 0.018491
0.286058 0.012920 0.024015
0.348386 0.013709 0.029290
0.420544 0.014558 0.038712
0.496733 0.016201 0.050697
0.576280 0.016989 0.064024
0.654851 0.018571 0.077961
0.731589 0.020153 0.091534
0.804116 0.021735 0.103704
0.874810 0.024111 0.115815
0.941659 0.025632 0.127012
0.982378 0.027155 0.134255
0.982378 0.027155 0.134255
0.982378 0.027155 0.134255
0.982378 0.027155 0.134255
0.982378 0.027155 0.134255
0.982378 0.027155 0.134255
0.982378 0.027155 0.134255
0.982378 0.027155 0.134255
0.982378 0.027155 0.134255
0.982378 0.027155 0.134255
0.982378 0.027155 0.134255
0.982378 0.027155 0.134255
0.982378 0.027155 0.134255
0.982378 0.027155 0.134255
0.982378 0.027155 0.134255
0.005311 0.008731 0.006168
0.005311 0.007876 0.006168
0.005311 0.008731 0.006168
0.025701 0.008729 0.008720
0.075757 0.009580 0.011194
0.122212 0.010431 0.012876
0.167080 0.011221 0.015292
0.211643 0.011217 0.017708
0.261151 0.012068 0.020854
0.315787 0.012918 0.026317
0.382389 0.013706 0.032995
0.455220 0.015349 0.044188
0.531836 0.016199 0.056356
0.610285 0.017780 0.070171
0.687451 0.019362 0.083316
0.760526 0.020944 0.096158
0.830855 0.022526 0.108574
0.899474 0.024109 0.120136
0.963453 0.026424 0.130663
0.982378 0.027155 0.134255
0.982378 0.027155 0.134255
0.982378 0.027155 0.134255
0.982378 0.027155 0.134255
0.982378 0.027155 0.134255
0.982378 0.027155 0.134255
0.982378 0.027155 0.134255
0.982378 0.027155 0.134255
0.982378 0.027155 0.134255
0.982378 0.027155 0.134255
0.982378 0.027155 0.134255
0.982378 0.027155 0.134255
0.982378 0.027155 0.134255
0.982378 0.027155 0.134255
0.005311 0.008731 0.006168
0.005309 0.012089 0.005314
0.005311 0.008731 0.006168
0.013735 0.008730 0.007018
0.061473 0.009581 0.010409
0.106768 0.010432 0.012031
0.151025 0.010428 0.014508
0.192353 0.011219 0.016926
0.239235 0.012069 0.019279
0.289904 0.012920 0.024012
0.349179 0.013709 0.029290
0.418530 0.014558 0.037981
0.492704 0.015347 0.050089
0.568771 0.016990 0.062868
0.645205 0.018571 0.076441
0.719807 0.020153 0.089343
0.790868 0.021736 0.101819
0.859182 0.023318 0.113443
0.925420 0.024839 0.124212
0.982378 0.027155 0.134255
0.982378 0.027155 0.134255
0.982378 0.027155 0.134255
0.982378 0.027155 0.134255
0.982378 0.027155 0.134255
0.982378 0.027155 0.134255
0.982378 0.027155 0.134255
0.982378 0.027155 0.134255
0.982378 0.027155 0.134255
0.982378 0.027155 0.134255
0.982378 0.027155 0.134255
0.982378 0.027155 0.134255
0.982378 0.027155 0.134255
0.982378 0.027155 0.134255
0.002676 0.025704 0.002694
0.000000 0.044447 0.000932
0.000000 0.037487 0.000929
0.000905 0.028757 0.002697
0.044435 0.020999 0.007003
0.092360 0.012082 0.011185
0.135337 0.010430 0.013662
0.175809 0.011220 0.015287
0.219762 0.011216 0.018497
0.267988 0.012067 0.022437
0.321587 0.012918 0.027046
0.386602 0.013706 0.033725
0.457540 0.015349 0.044858
0.531836 0.016199 0.056356
0.606804 0.017780 0.069074
0.681834 0.019362 0.082403
0.753078 0.020945 0.094941
0.821514 0.022527 0.106748
0.888790 0.024109 0.118188
0.952098 0.025631 0.128838
0.982378 0.027155 0.134255
0.982378 0.027155 0.134255
0.982378 0.027155 0.134255
0.982378 0.027155 0.134255
0.982378 0.027155 0.134255
0.982378 0.027155 0.134255
0.982378 0.027155 0.134255
0.982378 0.027155 0.134255
0.982378 0.027155 0.134255
0.982378 0.027155 0.134255
0.982378 0.027155 0.134255
0.982378 0.027155 0.134255
0.982378 0.027155 0.134255
0.000000 0.060871 0.000021
0.000000 0.076318 0.000027
0.000000 0.077294 0.000027
0.000000 0.070517 0.000025
0.021767 0.062029 0.002695
0.077261 0.053538 0.005285
0.124394 0.039614 0.008671
0.165852 0.024164 0.012855
0.205049 0.012072 0.016918
0.250712 0.012068 0.020066
0.300465 0.012919 0.024739
0.360107 0.013708 0.030016
0.427687 0.014558 0.039380
0.499358 0.016201 0.051368
0.573411 0.016989 0.063476
0.646914 0.018571 0.076440
0.719135 0.020153 0.089343
0.787632 0.021736 0.101027
0.854176 0.023318 0.112774
0.918765 0.024840 0.122995
0.978410 0.026423 0.133341
0.982378 0.027155 0.134255
0.982378 0.027155 0.134255
0.982378 0.027155 0.134255
0.982378 0.027155 0.134255
0.982378 0.027155 0.134255
0.982378 0.027155 0.134255
0.982378 0.027155 0.134255
0.982378 0.027155 0.134255
0.982378 0.027155 0.134255
0.982378 0.027155 0.134255
0.982378 0.027155 0.134255
0.982378 0.027155 0.134255
0.000000 0.089261 0.000031
0.000000 0.103792 0.000036
0.000000 0.110813 0.000039
0.000000 0.103792 0.000036
0.000000 0.097015 0.000034
0.059601 0.090172 0.000911
0.107890 0.084673 0.003506
0.153313 0.075267 0.006956
0.194585 0.062625 0.010347
0.240317 0.043756 0.014465
0.286540 0.022567 0.020842
0.339595 0.013710 0.028563
0.403756 0.014560 0.036585
0.473474 0.015348 0.046803
0.545083 0.016991 0.058180
0.618404 0.017780 0.071205
0.689709 0.019362 0.083803
0.758634 0.020944 0.095793
0.824811 0.022527 0.107478
0.890072 0.024109 0.118493
0.950938 0.025631 0.128838
0.982378 0.027155 0.134255
0.982378 0.027155 0.134255
0.982378 0.027155 0.134255
0.982378 0.027155 0.134255
0.982378 0.027155 0.134255
0.982378 0.027155 0.134255
0.982378 0.027155 0.134255
0.982378 0.027155 0.134255
0.982378 0.027155 0.134255
0.982378 0.027155 0.134255
0.982378 0.027155 0.134255
0.982378 0.027155 0.134255
0.000000 0.117651 0.000041
0.000000 0.132121 0.000046
0.000000 0.143416 0.000050
0.000000 0.136578 0.000048
0.000000 0.130289 0.000045
0.029430 0.124426 0.000026
0.087363 0.119658 0.000000
0.138826 0.112205 0.001726
0.181989 0.103776 0.004323
0.227472 0.095347 0.007773
0.274239 0.084171 0.011955
0.326930 0.067743 0.018451
0.387685 0.040997 0.027016
0.451618 0.015350 0.043518
0.521946 0.016199 0.054529
0.592946 0.017781 0.066823
0.664130 0.018570 0.079483
0.733421 0.020152 0.091533
0.798682 0.021735 0.102975
0.863089 0.023318 0.113807
0.924992 0.024839 0.124213
0.981890 0.027155 0.134255
0.982378 0.027155 0.134255
0.982378 0.027155 0.134255
0.982378 0.027155 0.134255
0.982378 0.027155 0.134255
0.982378 0.027155 0.134255
0.982378 0.027155 0.134255
0.982378 0.027155 0.134255
0.982378 0.027155 0.134255
0.982378 0.027155 0.134255
0.982378 0.027155 0.134255
0.982378 0.027155 0.134255
0.000000 0.146163 0.000051
0.000000 0.160755 0.000056
0.000000 0.175408 0.000061
0.000000 0.168753 0.000059
0.000000 0.163198 0.000057
0.000000 0.158252 0.000055
0.065983 0.152629 0.000013
0.121168 0.148046 0.000000
0.167930 0.141448 0.000000
0.214694 0.134484 0.001688
0.261825 0.126298 0.005198
0.313413 0.116953 0.010294
0.373366 0.105653 0.016055
0.438389 0.091484 0.024682
0.506106 0.065470 0.040022
0.572066 0.020164 0.062317
0.642335 0.018572 0.075954
0.710649 0.020154 0.087944
0.776339 0.020943 0.099446
0.839769 0.022526 0.110340
0.901733 0.024109 0.120440
0.959363 0.026424 0.130055
0.982378 0.027155 0.134255
0.982378 0.027155 0.134255
0.982378 0.027155 0.134255
0.982378 0.027155 0.134255
0.982378 0.027155 0.134255
0.982378 0.027155 0.134255
0.982378 0.027155 0.134255
0.982378 0.027155 0.134255
0.982378 0.027155 0.134255
0.982378 0.027155 0.134255
0.982378 0.027155 0.134255
0.000000 0.174309 0.000061
0.000000 0.189695 0.000066
0.000000 0.206180 0.000072
0.000000 0.202761 0.000071
0.000000 0.196472 0.000069
0.000000 0.191343 0.000067
0.026413 0.185907 0.000049
0.104490 0.180528 0.000000
0.152532 0.176494 0.000000
0.201064 0.170812 0.000000
0.249413 0.164885 0.000000
0.300389 0.157982 0.002560
0.358996 0.150223 0.006858
0.423406 0.140572 0.014388
0.491298 0.127806 0.024663
0.560109 0.111805 0.039333
0.628133 0.086952 0.057543
0.692330 0.027176 0.081911
0.756497 0.020944 0.095794
0.818706 0.022527 0.106322
0.883784 0.024110 0.117520
0.945383 0.025632 0.127926
0.982805 0.027155 0.134255
0.982561 0.027155 0.134255
0.982561 0.027155 0.134255
0.982378 0.027155 0.134255
0.982378 0.027155 0.134255
0.982378 0.027155 0.134255
0.982378 0.027155 0.134255
0.982378 0.027155 0.134255
0.982378 0.027155 0.134255
0.982378 0.027155 0.134255
0.982378 0.027155 0.134255
0.000000 0.204470 0.000071
0.000000 0.220466 0.000077
0.000000 0.238599 0.000083
0.000000 0.238599 0.000083
0.000000 0.231944 0.000081
0.000000 0.226205 0.000079
0.000000 0.220833 0.000077
0.075174 0.215820 0.000030
0.138172 0.210686 0.000000
0.185788 0.207507 0.000000
0.236578 0.202374 0.000000
0.288284 0.196813 0.000000
0.347071 0.191130 0.000000
0.410805 0.184348 0.003357
0.477839 0.176283 0.011863
0.546402 0.165594 0.023116
0.614482 0.151242 0.039314
0.680305 0.131761 0.056916
0.747662 0.100192 0.077445
0.807534 0.021734 0.104496
0.870903 0.023317 0.115146
0.932807 0.025633 0.125796
0.983233 0.027155 0.134255
0.982989 0.027155 0.134255
0.982805 0.027155 0.134255
0.982805 0.027155 0.134255
0.982561 0.027155 0.134255
0.982378 0.027155 0.134255
0.982378 0.027155 0.134255
0.982378 0.027155 0.134255
0.982378 0.027155 0.134255
0.982378 0.027155 0.134255
0.982378 0.027155 0.134255
0.000000 0.236707 0.000083
0.000000 0.254596 0.000089
0.000000 0.275049 0.000096
0.000000 0.278712 0.000097
0.000000 0.271263 0.000095
0.000000 0.264792 0.000092
0.000000 0.259052 0.000090
0.022477 0.253861 0.000075
0.113800 0.248724 0.000018
0.173686 0.243346 0.000000
0.222643 0.240839 0.000000
0.276242 0.236011 0.000000
0.335212 0.230877 0.000000
0.399126 0.225682 0.000000
0.466215 0.219754 0.000000
0.533920 0.212727 0.007628
0.603766 0.202893 0.021506
0.672762 0.189639 0.039292
0.740234 0.169365 0.058115
0.804294 0.140544 0.078890
0.864884 0.090110 0.101371
0.921635 0.024840 0.123604
0.978410 0.026423 0.133341
0.983477 0.027155 0.134254
0.983233 0.027155 0.134255
0.982989 0.027155 0.134255
0.982805 0.027155 0.134255
0.982805 0.027155 0.134255
0.982561 0.027155 0.134255
0.982378 0.027155 0.134255
0.982378 0.027155 0.134255
0.982561 0.027155 0.134255
0.982805 0.027155 0.134255
0.000000 0.273095 0.000095
0.000000 0.294281 0.000103
0.000000 0.318153 0.000111
0.000000 0.325479 0.000114
0.000000 0.317725 0.000111
0.000000 0.310460 0.000108
0.000000 0.303988 0.000106
0.000000 0.297822 0.000104
0.068182 0.292260 0.000060
0.149799 0.286575 0.000009
0.210356 0.281624 0.000000
0.262366 0.279238 0.000000
0.323961 0.274715 0.000000
0.387753 0.269703 0.000000
0.456857 0.264202 0.000000
0.526022 0.257358 0.000000
0.596411 0.249171 0.004122
0.665465 0.239031 0.020688
0.733423 0.225656 0.038596
0.797965 0.207824 0.058704
0.859093 0.181323 0.079421
0.918704 0.137056 0.101782
0.968154 0.026424 0.131271
0.983904 0.027155 0.134254
0.983660 0.027155 0.134254
0.983477 0.027155 0.134254
0.983233 0.027155 0.134255
0.982989 0.027155 0.134255
0.982805 0.027155 0.134255
0.982805 0.027155 0.134255
0.982805 0.027155 0.134255
0.982805 0.027155 0.134255
0.982989 0.027155 0.134255
0.000000 0.316077 0.000110
0.000000 0.339888 0.000119
0.000000 0.366752 0.000128
0.000000 0.378535 0.000132
0.000000 0.369255 0.000129
0.000000 0.361135 0.000126
0.000000 0.354358 0.000124
0.000000 0.347581 0.000121
0.000000 0.341964 0.000119
0.108513 0.336215 0.000051
0.184636 0.331202 0.000003
0.249954 0.326556 0.000000
0.309533 0.324292 0.000000
0.377782 0.319768 0.000000
0.447556 0.314450 0.000000
0.518735 0.308278 0.000000
0.588755 0.300945 0.000000
0.658593 0.292208 0.000000
0.726915 0.280481 0.015901
0.790968 0.265458 0.035705
0.852704 0.246100 0.057462
0.912367 0.220210 0.078853
0.968069 0.181560 0.100974
0.990812 0.122459 0.117794
0.984332 0.027155 0.134254
0.983904 0.027155 0.134254
0.983660 0.027155 0.134254
0.983477 0.027155 0.134254
0.983233 0.027155 0.134255
0.982989 0.027155 0.134255
0.982989 0.027155 0.134255
0.983233 0.027155 0.134255
0.983233 0.027155 0.134255
0.000000 0.364065 0.000127
0.000000 0.391174 0.000136
0.000000 0.420602 0.000147
0.000000 0.435987 0.000152
0.000000 0.426768 0.000149
0.000000 0.418587 0.000146
0.000000 0.410589 0.000143
0.000000 0.403812 0.000141
0.000000 0.397889 0.000139
0.008561 0.392211 0.000132
0.144323 0.387192 0.000047
0.224780 0.382057 0.000000
0.291807 0.380036 0.000000
0.364389 0.375329 0.000000
0.436728 0.370194 0.000000
0.509860 0.364570 0.000000
0.581405 0.358520 0.000000
0.651303 0.350638 0.000000
0.719615 0.340863 0.000000
0.784207 0.328036 0.004952
0.845760 0.311793 0.028359
0.905485 0.289138 0.052499
0.961977 0.259524 0.076821
0.995762 0.221975 0.095719
0.993590 0.176918 0.106697
0.990630 0.121848 0.118161
0.984332 0.027155 0.134254
0.983904 0.027155 0.134254
0.983660 0.027155 0.134254
0.983477 0.027155 0.134254
0.983233 0.027155 0.134255
0.983477 0.027155 0.134254
0.983477 0.027155 0.134254
0.000000 0.418587 0.000146
0.000000 0.447771 0.000156
0.000000 0.479397 0.000167
0.000000 0.497041 0.000173
0.000000 0.487883 0.000170
0.000000 0.478847 0.000167
0.000000 0.471826 0.000165
0.000000 0.465232 0.000162
0.000000 0.459371 0.000160
0.000000 0.453754 0.000158
0.053952 0.449231 0.000124
0.185259 0.443420 0.000042
0.272309 0.439077 0.000000
0.345500 0.437850 0.000000
0.423271 0.433447 0.000000
0.499700 0.427701 0.000000
0.572527 0.422200 0.000000
0.643462 0.415600 0.000000
0.711773 0.406436 0.000000
0.777033 0.395379 0.000000
0.838999 0.380538 0.000000
0.898289 0.361424 0.014971
0.955087 0.336816 0.043325
0.997848 0.303174 0.069486
0.997020 0.261537 0.084190
0.995518 0.221791 0.095719
0.993590 0.176674 0.107063
0.990631 0.119223 0.118465
0.984332 0.027155 0.134254
0.983904 0.027155 0.134254
0.983477 0.027155 0.134254
0.983904 0.027155 0.134254
0.983904 0.027155 0.134254
0.000000 0.476344 0.000166
0.000000 0.506993 0.000177
0.000000 0.540390 0.000188
0.000000 0.559744 0.000195
0.000000 0.550769 0.000192
0.000000 0.541794 0.000189
0.000000 0.534834 0.000187
0.000000 0.529461 0.000185
0.000000 0.524027 0.000183
0.000000 0.518960 0.000181
0.000000 0.514442 0.000179
0.116069 0.509303 0.000107
0.236753 0.505446 0.000033
0.329602 0.500981 0.000000
0.404868 0.500425 0.000000
0.485997 0.495411 0.000000
0.561021 0.490276 0.000000
0.633421 0.484287 0.000000
0.702403 0.476832 0.000000
0.768578 0.467729 0.000000
0.830298 0.455208 0.000000
0.889518 0.438413 0.000000
0.946297 0.416184 0.000000
0.997969 0.387120 0.027499
0.998429 0.345056 0.050508
0.997847 0.303907 0.068387
0.997203 0.261842 0.084190
0.995763 0.220387 0.096512
0.993410 0.171423 0.108161
0.989966 0.108233 0.120721
0.984087 0.027155 0.134254
0.984332 0.027155 0.134254
0.990147 0.111774 0.120112
0.000000 0.537032 0.000187
0.000000 0.568597 0.000198
0.000000 0.601871 0.000210
0.000000 0.621103 0.000217
0.000000 0.613227 0.000214
0.000000 0.606267 0.000211
0.000000 0.600406 0.000209
0.000000 0.594972 0.000208
0.000000 0.589599 0.000206
0.000000 0.584471 0.000204
0.000000 0.580136 0.000202
0.000000 0.576167 0.000201
0.181968 0.571694 0.000089
0.297281 0.568143 0.000018
0.390862 0.564044 0.000000
0.468082 0.563610 0.000000
0.546463 0.559269 0.000000
0.620511 0.554195 0.000000
0.690164 0.547656 0.000000
0.755911 0.539835 0.000000
0.817630 0.529389 0.000000
0.875566 0.515891 0.000000
0.932284 0.496960 0.000000
0.983814 0.473449 0.000000
0.994516 0.432420 0.002234
0.997968 0.388952 0.026767
0.998428 0.346521 0.049897
0.997847 0.303418 0.068936
0.997021 0.258667 0.084616
0.995339 0.215015 0.097732
0.992989 0.160433 0.110295
0.992566 0.152558 0.112369
0.994433 0.197737 0.102124
0.000000 0.598513 0.000209
0.000000 0.629040 0.000219
0.000000 0.662376 0.000231
0.000000 0.682768 0.000238
0.000000 0.676357 0.000236
0.000000 0.670069 0.000234
0.000000 0.664207 0.000232
0.000000 0.658835 0.000230
0.000000 0.654011 0.000228
0.000000 0.649493 0.000227
0.000000 0.645097 0.000225
0.000000 0.641312 0.000224
0.081035 0.637825 0.000173
0.254766 0.634269 0.000067
0.363547 0.630352 0.000000
0.455480 0.626436 0.000000
0.529098 0.626002 0.000000
0.605221 0.621661 0.000000
0.675790 0.616221 0.000000
0.741658 0.609255 0.000000
0.802950 0.600336 0.000000
0.860946 0.588913 0.000000
0.917234 0.574072 0.000000
0.968946 0.554592 0.000000
0.986663 0.520400 0.000000
0.990588 0.479310 0.000000
0.994270 0.435290 0.000465
0.997967 0.389684 0.026035
0.998430 0.343590 0.051179
0.997852 0.296458 0.071621
0.996601 0.246395 0.088337
0.995942 0.227652 0.094438
0.997018 0.264162 0.082725
0.000000 0.658285 0.000230
0.000000 0.688568 0.000240
0.000000 0.720255 0.000251
0.000000 0.742357 0.000259
0.000000 0.736251 0.000257
0.000000 0.730390 0.000255
0.000000 0.725017 0.000253
0.000000 0.720255 0.000251
0.000000 0.715737 0.000250
0.000000 0.711402 0.000248
0.000000 0.707495 0.000247
0.000000 0.703587 0.000245
0.000000 0.699863 0.000244
0.201632 0.696365 0.000120
0.332205 0.692935 0.000040
0.431829 0.689568 0.000000
0.518085 0.685531 0.000000
0.588163 0.685220 0.000000
0.659952 0.680756 0.000000
0.725759 0.674523 0.000000
0.787599 0.667619 0.000000
0.845045 0.658211 0.000000
0.901149 0.645995 0.000000
0.953347 0.630300 0.000000
0.977837 0.603251 0.000000
0.981821 0.566008 0.000000
0.986234 0.525406 0.000000
0.990404 0.481264 0.000000
0.994700 0.431199 0.003089
0.998404 0.377352 0.032748
0.998260 0.324237 0.059783
0.997852 0.295237 0.071621
0.998253 0.334616 0.054962
0.000000 0.716225 0.000250
0.000000 0.744921 0.000260
0.000000 0.773433 0.000270
0.000000 0.794436 0.000277
0.000000 0.788880 0.000275
0.000000 0.784179 0.000274
0.000000 0.779722 0.000272
0.000000 0.775509 0.000270
0.000000 0.771602 0.000269
0.000000 0.767389 0.000268
0.000000 0.763970 0.000266
0.000000 0.760001 0.000265
0.000000 0.756582 0.000264
0.121885 0.753763 0.000189
0.294150 0.750268 0.000083
0.405800 0.747450 0.000014
0.496084 0.743901 0.000000
0.576175 0.740352 0.000000
0.641430 0.739431 0.000000
0.709434 0.735212 0.000000
0.771457 0.728857 0.000000
0.829390 0.721159 0.000000
0.885188 0.711325 0.000000
0.937141 0.698743 0.000000
0.968710 0.677860 0.000000
0.972936 0.644646 0.000000
0.977408 0.607158 0.000000
0.982066 0.565153 0.000000
0.987092 0.517408 0.000000
0.991876 0.464291 0.000000
0.996490 0.406779 0.017370
0.998412 0.367095 0.039156
0.996488 0.409526 0.016577
0.000000 0.769770 0.000268
0.000000 0.794436 0.000277
0.000000 0.820750 0.000286
0.000000 0.841753 0.000294
0.000000 0.836929 0.000292
0.000000 0.832839 0.000290
0.000000 0.828748 0.000289
0.000000 0.824657 0.000288
0.000000 0.821055 0.000286
0.000000 0.817697 0.000285
0.000000 0.814095 0.000284
0.000000 0.810981 0.000283
0.000000 0.808173 0.000282
0.000000 0.805303 0.000281
0.250665 0.802473 0.000128
0.375500 0.800142 0.000051
0.473658 0.797264 0.000000
0.555397 0.794387 0.000000
0.622606 0.793771 0.000000
0.691098 0.789430 0.000000
0.754829 0.784723 0.000000
0.813311 0.778429 0.000000
0.868437 0.769999 0.000000
0.921000 0.759005 0.000000
0.960136 0.742273 0.000000
0.963994 0.713333 0.000000
0.968465 0.680180 0.000000
0.973181 0.642570 0.000000
0.978266 0.599282 0.000000
0.983598 0.550194 0.000000
0.989055 0.495367 0.000000
0.993655 0.444020 0.000000
0.989913 0.486759 0.000000
0.000000 0.817453 0.000285
0.000000 0.840165 0.000293
0.000000 0.864526 0.000302
0.000000 0.885345 0.000309
0.000000 0.881071 0.000307
0.000000 0.876981 0.000306
0.000000 0.873623 0.000305
0.000000 0.869960 0.000303
0.000000 0.866846 0.000302
0.000000 0.863488 0.000301
0.000000 0.860313 0.000300
0.000000 0.857688 0.000299
0.000000 0.855062 0.000298
0.000000 0.852681 0.000297
0.193203 0.850283 0.000179
0.343004 0.847889 0.000087
0.447328 0.845438 0.000023
0.533400 0.843049 0.000000
0.609889 0.839807 0.000000
0.671177 0.838763 0.000000
0.736067 0.834667 0.000000
0.795953 0.828984 0.000000
0.851628 0.821225 0.000000
0.905228 0.812062 0.000000
0.952115 0.799542 0.000000
0.955544 0.773960 0.000000
0.959891 0.744837 0.000000
0.964178 0.711806 0.000000
0.969383 0.673403 0.000000
0.974713 0.628955 0.000000
0.980717 0.578463 0.000000
0.986663 0.521438 0.000000
0.982495 0.561062 0.000000
0.000000 0.861351 0.000300
0.000000 0.882598 0.000308
0.000000 0.905005 0.000316
0.000000 0.925091 0.000323
0.000000 0.921489 0.000321
0.000000 0.917887 0.000320
0.000000 0.914529 0.000319
0.000000 0.911354 0.000318
0.000000 0.908668 0.000317
0.000000 0.905737 0.000316
0.000000 0.903295 0.000315
0.000000 0.900609 0.000314
0.000000 0.898350 0.000313
0.000000 0.896152 0.000313
0.113217 0.893883 0.000243
0.304955 0.891851 0.000126
0.417825 0.889582 0.000057
0.508353 0.887316 0.000001
0.587833 0.884561 0.000000
0.657607 0.881014 0.000000
0.715904 0.879727 0.000000
0.776827 0.874837 0.000000
0.834210 0.869093 0.000000
0.888360 0.860235 0.000000
0.936832 0.849974 0.000000
0.947524 0.829215 0.000000
0.951442 0.803266 0.000000
0.955544 0.773960 0.000000
0.960320 0.740014 0.000000
0.965770 0.700084 0.000000
0.971589 0.654842 0.000000
0.977837 0.603251 0.000000
0.974529 0.630909 0.000000
0.000000 0.902074 0.000315
0.000000 0.921733 0.000321
0.000000 0.941759 0.000328
0.000000 0.959465 0.000335
0.000000 0.956290 0.000334
0.000000 0.953543 0.000333
0.000000 0.950551 0.000332
0.000000 0.948048 0.000331
0.000000 0.945728 0.000330
0.000000 0.943652 0.000329
0.000000 0.941332 0.000328
0.000000 0.939195 0.000328
0.000000 0.937119 0.000327
0.000000 0.935471 0.000326
0.000000 0.933822 0.000326
0.257568 0.932151 0.000169
0.384722 0.930247 0.000091
0.481111 0.927430 0.000031
0.562238 0.925042 0.000000
0.634576 0.922411 0.000000
0.701359 0.918803 0.000000
0.756054 0.917332 0.000000
0.814109 0.912016 0.000000
0.869661 0.905661 0.000000
0.919049 0.896071 0.000000
0.940055 0.879707 0.000000
0.943361 0.857117 0.000000
0.947279 0.830558 0.000000
0.951870 0.800092 0.000000
0.957135 0.764863 0.000000
0.962585 0.724445 0.000000
0.968893 0.677860 0.000000
0.966444 0.695810 0.000000
0.000000 0.938768 0.000327
0.000000 0.956046 0.000333
0.000000 0.973874 0.000340
0.000000 0.984192 0.000343
0.000000 0.984009 0.000343
0.000000 0.984009 0.000343
0.000000 0.982482 0.000343
0.000000 0.980284 0.000342
0.000000 0.978270 0.000341
0.000000 0.976499 0.000341
0.000000 0.974301 0.000340
0.000000 0.972714 0.000339
0.000000 0.971187 0.000339
0.000000 0.969844 0.000338
0.000000 0.968257 0.000338
0.202859 0.966468 0.000214
0.348753 0.964868 0.000125
0.449658 0.963516 0.000063
0.534570 0.961677 0.000011
0.609044 0.959656 0.000000
0.677230 0.956658 0.000000
0.739252 0.953051 0.000000
0.791811 0.950726 0.000000
0.847607 0.944738 0.000000
0.899253 0.937040 0.000000
0.932771 0.924521 0.000000
0.936076 0.904679 0.000000
0.939871 0.881233 0.000000
0.943789 0.854186 0.000000
0.948687 0.822315 0.000000
0.953708 0.786476 0.000000
0.959891 0.744532 0.000000
0.958544 0.754606 0.000000
0.000000 0.971187 0.000339
0.000000 0.984009 0.000343
0.000000 0.984192 0.000343
0.000000 0.984192 0.000343
0.000000 0.984192 0.000343
0.000000 0.984192 0.000343
0.000000 0.984192 0.000343
0.000000 0.984192 0.000343
0.000000 0.984192 0.000343
0.000000 0.984192 0.000343
0.000000 0.984863 0.000344
0.000000 0.985962 0.000344
0.000000 0.987306 0.000344
0.000000 0.988588 0.000345
0.000000 0.990297 0.000345
0.127704 0.991812 0.000268
0.305644 0.993567 0.000161
0.413446 0.995023 0.000096
0.502570 0.993550 0.000041
0.580462 0.991590 0.000000
0.650235 0.989202 0.000000
0.713172 0.985900 0.000000
0.773485 0.982170 0.000000
0.822992 0.979113 0.000000
0.876102 0.973125 0.000000
