tests/test.cube
#title:FLog_FGamut_to_ETERNA_BT.709
#FUJIFILM Corporation
#Gamma:F-Log to ETERNA
#Gamut:F-Gamut to ITU-R BT.709
#Version:1.01
LUT_3D_SIZE 9
0.007876 0.007876 0.007876
0.104143 0.010432 0.012032
0.304921 0.012919 0.025530
0.625180 0.017779 0.072300
0.921146 0.024840 0.123604
0.982378 0.027155 0.134255
0.982378 0.027155 0.134255
0.982378 0.027155 0.134255
0.982378 0.027155 0.134255
0.002676 0.025704 0.002694
0.044435 0.020999 0.007003
0.219762 0.011216 0.018497
0.457540 0.015349 0.044858
0.753078 0.020945 0.094941
0.982378 0.027155 0.134255
0.982378 0.027155 0.134255
0.982378 0.027155 0.134255
0.982378 0.027155 0.134255
0.000000 0.146163 0.000051
0.000000 0.163198 0.000057
0.167930 0.141448 0.000000
0.373366 0.105653 0.016055
0.642335 0.018572 0.075954
0.901733 0.024109 0.120440
0.982378 0.027155 0.134255
0.982378 0.027155 0.134255
0.982378 0.027155 0.134255
0.000000 0.273095 0.000095
0.000000 0.317725 0.000111
0.068182 0.292260 0.000060
0.323961 0.274715 0.000000
0.596411 0.249171 0.004122
0.859093 0.181323 0.079421
0.983660 0.027155 0.134254
0.982805 0.027155 0.134255
0.982989 0.027155 0.134255
0.000000 0.476344 0.000166
0.000000 0.550769 0.000192
0.000000 0.524027 0.000183
0.236753 0.505446 0.000033
0.561021 0.490276 0.000000
0.830298 0.455208 0.000000
0.998429 0.345056 0.050508
0.993410 0.171423 0.108161
0.990147 0.111774 0.120112
0.000000 0.716225 0.000250
0.000000 0.788880 0.000275
0.000000 0.771602 0.000269
0.000000 0.756582 0.000264
0.496084 0.743901 0.000000
0.771457 0.728857 0.000000
0.968710 0.677860 0.000000
0.987092 0.517408 0.000000
0.996488 0.409526 0.016577
0.000000 0.902074 0.000315
0.000000 0.956290 0.000334
0.000000 0.945728 0.000330
0.000000 0.937119 0.000327
0.384722 0.930247 0.000091
0.701359 0.918803 0.000000
0.919049 0.896071 0.000000
0.951870 0.800092 0.000000
0.966444 0.695810 0.000000
0.000000 0.984192 0.000343
0.000000 0.984192 0.000343
0.000000 0.984192 0.000343
0.000000 0.986207 0.000344
0.123980 0.991813 0.000270
0.565808 0.999101 0.000005
0.818527 0.999933 0.000000
0.918523 0.984356 0.000000
0.936811 0.899977 0.000000
0.000000 0.984192 0.000343
0.000000 0.984192 0.000343
0.000000 0.984192 0.000343
0.000000 0.984192 0.000343
0.000000 0.988160 0.000345
0.331831 0.993992 0.000145
0.636496 0.999949 0.000000
0.887567 0.999927 0.000000
0.915342 0.999925 0.000000
0.007902 0.008734 0.050991
0.095780 0.010433 0.012037
0.294238 0.012920 0.024010
0.591909 0.017782 0.066824
0.889279 0.024109 0.118493
0.982378 0.027155 0.134255
0.982378 0.027155 0.134255
0.982378 0.027155 0.134255
0.982378 0.027155 0.134255
0.002710 0.024915 0.057901
0.028756 0.028756 0.028756
0.209018 0.011217 0.017709
0.436905 0.014557 0.040779
0.730491 0.020153 0.091535
0.982378 0.027155 0.134255
0.982378 0.027155 0.134255
0.982378 0.027155 0.134255
0.982378 0.027155 0.134255
0.000000 0.151051 0.043840
0.000000 0.170831 0.024976
0.157425 0.154148 0.000000
0.363529 0.122505 0.012769
0.629148 0.018573 0.072786
0.888790 0.024109 0.118188
0.982378 0.027155 0.134255
0.982378 0.027155 0.134255
0.982378 0.027155 0.134255
0.000000 0.284820 0.030329
0.000000 0.332745 0.000116
0.031610 0.308320 0.000088
0.314309 0.290956 0.000000
0.591762 0.264862 0.000000
0.855661 0.203058 0.072224
0.983904 0.027155 0.134254
0.982805 0.027155 0.134255
0.982989 0.027155 0.134255
0.000000 0.495454 0.000173
0.000000 0.567681 0.000198
0.000000 0.544419 0.000190
0.208053 0.527428 0.000058
0.553443 0.511829 0.000000
0.826505 0.476272 0.000000
0.998413 0.366118 0.039828
0.994435 0.193951 0.102916
0.991237 0.126549 0.117124
0.000000 0.730878 0.000255
0.000000 0.799015 0.000279
0.000000 0.782408 0.000273
0.000000 0.770075 0.000269
0.482832 0.757150 0.000000
0.765714 0.741007 0.000000
0.967117 0.690437 0.000000
0.985560 0.531329 0.000000
0.995378 0.423140 0.007422
0.000000 0.907691 0.000317
0.000000 0.959709 0.000335
0.000000 0.949391 0.000331
0.000000 0.942492 0.000329
0.361646 0.934279 0.000106
0.691406 0.924054 0.000000
0.914468 0.902971 0.000000
0.950523 0.810043 0.000000
0.964851 0.707960 0.000000
0.000000 0.981139 0.000342
0.000000 0.983337 0.000343
0.000000 0.984192 0.000343
0.000000 0.985535 0.000344
0.022160 0.991394 0.000332
0.550242 0.998675 0.000014
0.815170 0.999933 0.000000
0.916566 0.991988 0.000000
0.934668 0.913470 0.000000
0.000000 0.981994 0.000343
0.000000 0.984192 0.000343
0.000000 0.984192 0.000343
0.000000 0.984192 0.000343
0.000000 0.987733 0.000345
0.333358 0.992039 0.000144
0.615741 0.999951 0.000000
0.869132 0.999929 0.000000
0.915342 0.999925 0.000000
0.009691 0.012958 0.188276
0.074324 0.009593 0.165151
0.282206 0.012074 0.115499
0.565352 0.016990 0.062320
0.862051 0.023318 0.113807
0.982378 0.027155 0.134255
0.982378 0.027155 0.134255
0.982378 0.027155 0.134255
0.982378 0.027155 0.134255
0.009697 0.015401 0.199880
0.007110 0.021016 0.165440
0.201221 0.010435 0.146082
0.420544 0.014558 0.038712
0.712969 0.020154 0.088431
0.972183 0.026423 0.132185
0.982378 0.027155 0.134255
0.982378 0.027155 0.134255
0.982378 0.027155 0.134255
0.000049 0.146484 0.186863
0.000027 0.169683 0.165497
0.153123 0.153123 0.153123
0.358281 0.124407 0.119156
0.621026 0.023335 0.070167
0.884517 0.024110 0.117825
0.982378 0.027155 0.134255
0.982378 0.027155 0.134255
0.982378 0.027155 0.134255
0.000000 0.287398 0.193752
0.000000 0.337338 0.172395
0.000000 0.313037 0.157119
0.313414 0.296524 0.140556
0.588779 0.273045 0.019952
0.853275 0.211361 0.068992
0.983904 0.027155 0.134254
0.982989 0.027155 0.134255
0.982989 0.027155 0.134255
0.000000 0.503895 0.194438
0.000000 0.575753 0.163440
0.000000 0.553345 0.138821
0.200004 0.535803 0.121655
0.553717 0.522946 0.057740
0.822043 0.489460 0.000000
0.998219 0.380526 0.031283
0.995098 0.208421 0.099379
0.991657 0.139920 0.114441
0.000000 0.733336 0.191464
0.000000 0.799026 0.135426
0.000000 0.783576 0.095236
0.000000 0.771608 0.073980
0.483138 0.761486 0.004369
0.756126 0.749617 0.000000
0.965525 0.701671 0.000000
0.984272 0.544822 0.000000
0.994085 0.436877 0.000000
0.000000 0.904775 0.178455
0.000000 0.954707 0.055784
0.000000 0.945056 0.000330
0.000000 0.938035 0.000327
0.358289 0.934035 0.000108
0.677243 0.928329 0.000000
0.906164 0.907123 0.000000
0.948871 0.820118 0.000000
0.963320 0.720171 0.000000
0.000000 0.976262 0.091884
0.000000 0.978025 0.000341
0.000000 0.978270 0.000341
0.000000 0.979369 0.000342
0.000000 0.986207 0.000344
0.549084 0.995683 0.000014
0.801618 0.999935 0.000000
0.915832 0.994552 0.000000
0.933749 0.921408 0.000000
0.000000 0.977842 0.000341
0.000000 0.979613 0.000342
0.000000 0.979796 0.000342
0.000000 0.980284 0.000342
0.000000 0.983093 0.000343
0.338121 0.988985 0.000140
0.610858 0.998486 0.000000
0.863943 0.999929 0.000000
0.915342 0.999925 0.000000
0.011443 0.022619 0.366296
0.011413 0.019440 0.315241
0.265031 0.009585 0.280213
0.548658 0.015355 0.215187
0.839219 0.022526 0.110340
0.982378 0.027155 0.134255
0.982378 0.027155 0.134255
0.982378 0.027155 0.134255
0.982378 0.027155 0.134255
0.011448 0.022620 0.374724
0.011417 0.019441 0.322142
0.183910 0.008738 0.287590
0.414690 0.012928 0.250260
0.699424 0.019362 0.097477
0.958691 0.026424 0.129750
0.982378 0.027155 0.134255
0.982378 0.027155 0.134255
0.982378 0.027155 0.134255
0.000156 0.140027 0.359504
0.000124 0.167315 0.325131
0.127325 0.152099 0.292804
0.352574 0.126618 0.272567
0.623082 0.035316 0.249226
0.880976 0.024110 0.117155
0.982378 0.027155 0.134255
0.982378 0.027155 0.134255
0.982378 0.027155 0.134255
0.000102 0.289977 0.377633
0.000064 0.341993 0.351330
0.000053 0.319095 0.316024
0.303498 0.303498 0.303498
0.596564 0.277889 0.279861
0.855706 0.218451 0.158094
0.983904 0.027155 0.134254
0.982989 0.027155 0.134255
0.982989 0.027155 0.134255
0.000024 0.513437 0.407146
0.000000 0.584075 0.380545
0.000000 0.563191 0.345422
0.157213 0.545837 0.332496
0.552948 0.532369 0.308496
0.826879 0.497782 0.230820
0.997108 0.396034 0.022129
0.995519 0.220204 0.096512
0.992567 0.150665 0.112368
0.000000 0.734822 0.437636
0.000000 0.797339 0.402787
0.000000 0.782744 0.377255
0.000000 0.772242 0.359114
0.474977 0.763346 0.341601
0.765874 0.751226 0.273816
0.963751 0.710829 0.000000
0.982924 0.557155 0.000000
0.993226 0.448539 0.000000
0.000000 0.899608 0.450885
0.000000 0.947165 0.399725
0.000000 0.938555 0.378958
0.000000 0.932692 0.360147
0.334690 0.930524 0.344065
0.686628 0.924566 0.277039
0.902990 0.907368 0.000000
0.947525 0.827322 0.000000
0.961728 0.730794 0.000000
0.000000 0.971404 0.404558
0.000000 0.973411 0.306786
0.000000 0.973897 0.287550
0.000000 0.974322 0.256343
0.000000 0.981162 0.275583
0.555732 0.991189 0.292837
0.798205 0.999936 0.009452
0.915587 0.996323 0.000000
0.931610 0.929284 0.000000
0.000000 0.973897 0.285718
0.000000 0.975840 0.148984
0.000000 0.976264 0.115029
0.000000 0.976505 0.069777
0.000000 0.978699 0.021349
0.286230 0.985953 0.193455
0.619049 0.994596 0.217867
0.847584 0.999931 0.000000
0.915342 0.999925 0.000000
0.010797 0.049749 0.631531
0.010765 0.042418 0.573207
0.234820 0.013758 0.494892
0.534500 0.012932 0.423625
0.829874 0.020161 0.301615
0.982378 0.027155 0.134255
0.982378 0.027155 0.134255
0.982378 0.027155 0.134255
0.982378 0.027155 0.134255
0.010789 0.047794 0.617606
0.011544 0.038997 0.546945
0.143914 0.022617 0.479988
0.402229 0.010441 0.437445
0.701302 0.016210 0.375769
0.946115 0.025632 0.127925
0.982378 0.027155 0.134255
0.982378 0.027155 0.134255
0.982378 0.027155 0.134255
0.000302 0.128812 0.593458
0.000259 0.161045 0.545590
0.017261 0.147607 0.488048
0.338100 0.125414 0.463418
0.626614 0.040277 0.442266
0.889664 0.020954 0.351045
0.982378 0.027155 0.134255
0.982378 0.027155 0.134255
0.982378 0.027155 0.134255
0.000234 0.291277 0.597117
0.000191 0.346651 0.565930
0.000172 0.325034 0.518471
0.284146 0.308096 0.507301
0.597544 0.283707 0.492384
0.866861 0.220793 0.436626
0.988538 0.025636 0.225183
0.982989 0.027155 0.134255
0.982989 0.027155 0.134255
0.000149 0.520049 0.620220
0.000104 0.588610 0.594473
0.000093 0.570231 0.562161
0.000091 0.555210 0.547804
0.540876 0.540876 0.540876
0.830027 0.503848 0.497389
0.999861 0.413888 0.350749
0.995759 0.226615 0.094438
0.992747 0.157198 0.111027
0.000071 0.731420 0.640935
0.000027 0.791556 0.610788
0.000017 0.779465 0.586173
0.000011 0.770733 0.568765
0.444961 0.762452 0.572767
0.764816 0.750577 0.543194
0.985306 0.710862 0.416389
0.984502 0.580058 0.101896
0.992366 0.459589 0.000000
0.000006 0.889672 0.646365
0.000000 0.936009 0.603999
0.000000 0.929414 0.587508
0.000000 0.923673 0.570650
0.256574 0.923651 0.574281
0.678862 0.918362 0.553382
0.910836 0.901299 0.455707
0.962937 0.827036 0.251677
0.960136 0.742273 0.000000
0.000000 0.967208 0.610849
0.000000 0.968972 0.525719
0.000000 0.969215 0.514666
0.000000 0.969641 0.496162
0.000000 0.975014 0.497751
0.533649 0.986386 0.515875
0.798162 0.998934 0.444389
0.932163 0.992670 0.152699
0.931365 0.930688 0.000000
0.000000 0.969641 0.495612
0.000000 0.971404 0.404924
0.000000 0.971891 0.383978
0.000000 0.972560 0.356802
0.000000 0.973228 0.318145
0.185679 0.981398 0.372631
0.632078 0.991196 0.462686
0.853075 0.999955 0.299682
0.915586 0.999925 0.000000
0.002262 0.097088 0.887129
0.006625 0.080903 0.822081
0.131290 0.057928 0.727890
0.510911 0.010452 0.682268
0.826204 0.016217 0.592062
0.992261 0.024118 0.324724
0.982378 0.027155 0.134255
0.982378 0.027155 0.134255
0.982378 0.027155 0.134255
0.005784 0.087072 0.848955
0.009168 0.071619 0.780855
0.009977 0.057936 0.694375
0.373985 0.007899 0.670014
0.700415 0.013728 0.624810
0.953426 0.020167 0.505268
0.982378 0.027155 0.134255
0.982378 0.027155 0.134255
0.982378 0.027155 0.134255
0.000449 0.103860 0.819895
0.000398 0.148120 0.768245
0.000364 0.136025 0.701981
0.300813 0.119024 0.680113
0.624747 0.027964 0.678663
0.899294 0.017801 0.627683
0.993623 0.023326 0.355258
0.982378 0.027155 0.134255
0.982378 0.027155 0.134255
0.000357 0.286165 0.798462
0.000308 0.344530 0.758726
0.000292 0.325966 0.717864
0.213396 0.312393 0.711379
0.584003 0.286596 0.714992
0.871716 0.219959 0.693359
1.000000 0.020960 0.547744
0.983233 0.027155 0.134255
0.982989 0.027155 0.134255
0.000259 0.516034 0.799397
0.000215 0.584107 0.774749
0.000205 0.568658 0.747201
0.000200 0.556813 0.730586
0.508947 0.539918 0.738577
0.824182 0.506981 0.726526
1.000000 0.421239 0.649748
0.999942 0.316512 0.414593
0.993166 0.170507 0.108161
0.000174 0.719772 0.803193
0.000130 0.778564 0.773290
0.000123 0.769283 0.753622
0.000113 0.761893 0.732978
0.359424 0.756612 0.745155
0.746810 0.746810 0.746810
0.986576 0.706123 0.698283
0.999895 0.609705 0.546301
0.996763 0.503262 0.235849
0.000104 0.871857 0.795796
0.000061 0.918927 0.758315
0.000055 0.913369 0.743840
0.000047 0.910438 0.728938
0.000049 0.910926 0.733030
0.642354 0.906964 0.742471
0.903179 0.891125 0.707986
0.985558 0.823767 0.612217
0.977744 0.751825 0.356132
0.000050 0.963131 0.771827
0.000003 0.965200 0.695186
0.000000 0.965383 0.684682
0.000000 0.965626 0.672163
0.000000 0.967640 0.666179
0.465690 0.980728 0.684954
0.787255 0.994436 0.675848
0.961042 0.984154 0.562394
0.957781 0.924550 0.375930
0.000000 0.965869 0.665262
0.000000 0.967390 0.598391
0.000000 0.967877 0.579521
0.000000 0.968059 0.560956
0.000000 0.968728 0.534086
0.000000 0.975200 0.539645
0.606279 0.987485 0.598641
0.850865 0.999368 0.583352
0.937177 0.999946 0.274593
0.000533 0.121334 0.972330
0.000526 0.116753 0.957489
0.000511 0.107287 0.925790
0.440822 0.048451 0.893869
0.811042 0.012943 0.854242
1.000000 0.019385 0.688875
0.988557 0.024845 0.256329
0.982378 0.027155 0.134255
0.982378 0.027155 0.134255
0.000534 0.138369 0.986688
0.000531 0.119746 0.967627
0.001412 0.099531 0.896413
0.299236 0.067815 0.862449
0.682973 0.011245 0.853830
0.951340 0.017016 0.790279
1.000000 0.021749 0.484171
0.982378 0.027155 0.134255
0.982378 0.027155 0.134255
0.000540 0.127624 0.988027
0.000525 0.116082 0.954985
0.000493 0.109117 0.897394
0.194045 0.101526 0.864662
0.593689 0.009607 0.890037
0.897242 0.014585 0.868114
1.000000 0.019383 0.671959
0.989422 0.024846 0.274527
0.982378 0.027155 0.134255
0.000469 0.259682 0.964989
0.000417 0.325067 0.924950
0.000403 0.313587 0.894228
0.000390 0.301373 0.864056
0.526062 0.280327 0.895119
0.859818 0.212773 0.900634
1.000000 0.017808 0.822861
1.000000 0.021751 0.504202
0.992931 0.024117 0.322464
0.000353 0.489609 0.937038
0.000310 0.560735 0.916361
0.000302 0.550843 0.895532
0.000293 0.542355 0.875071
0.401242 0.531453 0.893573
0.796331 0.501015 0.900773
1.000000 0.407521 0.874418
1.000000 0.320684 0.660949
0.999995 0.302965 0.493735
0.000250 0.693039 0.911338
0.000220 0.752871 0.903786
0.000213 0.746887 0.887601
0.000205 0.742429 0.871721
0.000209 0.740475 0.877156
0.704543 0.730402 0.896450
0.970088 0.693440 0.881436
1.000000 0.627428 0.755775
0.999957 0.578085 0.626840
0.000175 0.841826 0.891909
0.000146 0.890241 0.879284
0.000141 0.886943 0.867924
0.000135 0.886210 0.857725
0.000131 0.886454 0.851863
0.554298 0.886896 0.877176
0.873863 0.873863 0.873863
0.998927 0.823233 0.815082
0.997357 0.766444 0.700740
0.000123 0.950197 0.882908
0.000092 0.961610 0.840408
0.000087 0.961793 0.831736
0.000081 0.962036 0.822148
0.000074 0.962279 0.810423
0.290278 0.973245 0.825274
0.740349 0.989019 0.835144
0.981451 0.971594 0.790594
0.982958 0.915907 0.718328
0.000071 0.962279 0.806698
0.000040 0.963618 0.754606
0.000030 0.964044 0.738667
0.000021 0.964287 0.724682
0.000010 0.964957 0.706483
0.000001 0.967215 0.692927
0.532556 0.982251 0.724854
0.843532 0.995721 0.771327
0.964440 0.999790 0.641238
0.000538 0.124509 0.982774
0.000532 0.120723 0.970315
0.000520 0.113333 0.946006
0.350563 0.088883 0.962458
0.768460 0.011249 0.998941
1.000000 0.016233 0.969672
1.000000 0.020174 0.630554
0.991397 0.024116 0.309946
0.990288 0.024115 0.293030
0.000531 0.143497 0.986018
0.000532 0.141544 0.986261
0.000536 0.133973 0.987358
0.000540 0.126708 0.988210
0.619379 0.043133 0.999897
0.934496 0.013738 0.997131
1.000000 0.017806 0.794586
0.996463 0.022537 0.407714
0.994919 0.023328 0.379135
0.000531 0.145451 0.985835
0.000531 0.145451 0.985835
0.000531 0.144352 0.985835
0.000538 0.130676 0.987601
0.501486 0.086552 0.999984
0.868876 0.012095 0.999735
1.000000 0.016229 0.924236
1.000000 0.020172 0.609913
1.000000 0.021748 0.476965
0.000516 0.174818 0.982120
0.000475 0.254676 0.971277
0.000470 0.264872 0.969938
0.000468 0.267741 0.969511
0.368949 0.255989 1.000000
0.814165 0.192820 0.999831
1.000000 0.015381 0.999657
1.000000 0.017805 0.779013
1.000000 0.020172 0.605577
0.000404 0.392290 0.951661
0.000357 0.483076 0.938013
0.000353 0.489914 0.937038
0.000349 0.497668 0.935881
0.000364 0.503410 0.964647
0.724431 0.477462 0.999985
1.000000 0.382621 0.999785
1.000000 0.279490 0.864724
1.000000 0.268610 0.716077
0.000292 0.606954 0.919552
0.000253 0.686751 0.911336
0.000251 0.690597 0.910849
0.000249 0.694565 0.910117
0.000247 0.698900 0.909630
0.582882 0.700198 0.973339
0.927380 0.665674 0.999928
1.000000 0.595387 0.903613
1.000000 0.567658 0.784274
0.000209 0.773507 0.899580
0.000177 0.836148 0.892395
0.000176 0.838041 0.892152
0.000175 0.840483 0.891908
0.000174 0.842620 0.891665
0.331111 0.848761 0.932016
0.815586 0.840664 0.984239
1.000000 0.801631 0.942403
1.000000 0.774026 0.845660
0.000147 0.898911 0.886188
0.000124 0.946716 0.883151
0.000123 0.948365 0.883152
0.000123 0.949708 0.883152
0.000122 0.952272 0.882909
0.000126 0.956364 0.893231
0.639220 0.961991 0.950068
0.947799 0.947799 0.947799
0.995700 0.910608 0.892062
0.000119 0.960026 0.884438
0.000119 0.960210 0.884927
0.000113 0.960453 0.874912
0.000108 0.960696 0.865568
0.000100 0.961123 0.854026
0.000091 0.961610 0.838820
0.355610 0.973913 0.852777
0.803553 0.991826 0.877061
0.982820 0.999989 0.853993
0.000539 0.128234 0.988028
0.000537 0.124509 0.982286
0.000527 0.117059 0.959077
0.298799 0.098718 0.970615
0.735742 0.010459 0.999815
1.000000 0.015380 0.995382
1.000000 0.018597 0.759288
1.000000 0.021748 0.479224
1.000000 0.021750 0.493392
0.000531 0.145451 0.985835
0.000531 0.145451 0.985835
0.000534 0.138369 0.986688
0.000537 0.131897 0.987601
0.559539 0.084227 0.999948
0.907394 0.012947 0.999712
1.000000 0.016231 0.941641
1.000000 0.019381 0.648081
1.000000 0.020173 0.626646
0.000531 0.145451 0.985835
0.000531 0.145451 0.985835
0.000531 0.145451 0.985835
0.000531 0.145451 0.985835
0.364546 0.133332 1.000000
0.817906 0.010451 0.999766
1.000000 0.014587 0.999656
1.000000 0.017810 0.842709
1.000000 0.018596 0.745486
0.000519 0.167186 0.982972
0.000492 0.220364 0.975968
0.000495 0.215357 0.976821
0.000497 0.210778 0.977247
0.000501 0.213038 0.984332
0.707046 0.163707 0.999886
1.000000 0.013732 0.999656
1.000000 0.016234 0.980786
1.000000 0.017017 0.848327
0.000437 0.328184 0.961166
0.000397 0.405905 0.949773
0.000398 0.402852 0.950016
0.000399 0.401814 0.950504
0.000399 0.401448 0.950504
0.544987 0.422285 1.000000
0.936916 0.350695 0.999812
1.000000 0.212769 0.999725
1.000000 0.210136 0.909342
0.000337 0.519586 0.932346
0.000295 0.600054 0.919550
0.000296 0.597979 0.919793
0.000296 0.599017 0.919550
0.000294 0.602985 0.919307
0.331718 0.617307 0.962653
0.816787 0.626060 0.999981
1.000000 0.535806 0.999838
1.000000 0.520963 0.923924
0.000251 0.689681 0.910848
0.000217 0.757572 0.901589
0.000215 0.760076 0.901346
0.000213 0.764044 0.900859
0.000211 0.767768 0.900310
0.000214 0.773203 0.908190
0.705606 0.783587 0.976591
0.987402 0.770071 0.999928
1.000000 0.743935 0.946108
0.000160 0.870583 0.888926
0.000139 0.915518 0.884911
0.000142 0.908008 0.885642
0.000146 0.900438 0.886189
0.000147 0.897690 0.886432
0.000145 0.901903 0.885884
0.478082 0.908459 0.937872
0.886919 0.908184 0.987517
1.000000 0.894374 0.971993
0.000119 0.960210 0.884683
0.000119 0.960210 0.884683
0.000119 0.960210 0.884683
0.000119 0.960210 0.884683
0.000119 0.960210 0.884683
0.000119 0.960210 0.884683
0.000127 0.965401 0.901418
0.722417 0.985978 0.958270
1.000000 1.000000 1.000000
